X: 114205
T: SANDERS BRANE
Q: "Strathspey."
R:  Strathspey.
%R: strathspey
B: James Kerr "Merry Melodies" v.1 p.14 s.2 #5
Z: 2017 John Chambers <jc:trillian.mit.edu>
M: C
L: 1/8
K: Dm
uA |\
vF>vAuD>uA F>AD>F | vG<uC vE>uG vC>uG E<G |\
F>AD>A F>A D>g | f<d f/e/d/^c/ dD D ::\
(e/f/) |\
va<ud vf>ua vd>vauf>ua |
g<c e>g c>g (e<g) |\
[1 a<d f>a d>af>a | g<c a/g/f/e/ f<d d :|\
[2 (3agf (3gfe (3fed (3edc | A<c A/G/F/E/ F<D D |]

%%sep 1 1 500
%%sep 1 1 500

